src/npmap-builder/dam-white-18.svg

<?xml version="1.0" encoding="UTF-8" standalone="no"?>
<svg width="18px" height="18px" viewBox="0 0 18 18" version="1.1" xmlns="http://www.w3.org/2000/svg" xmlns:xlink="http://www.w3.org/1999/xlink" xmlns:sketch="http://www.bohemiancoding.com/sketch/ns">
    <!-- Generator: Sketch 3.3.3 (12072) - http://www.bohemiancoding.com/sketch -->
    <title>dam-white-18</title>
    <desc>Created with Sketch.</desc>
    <defs></defs>
    <g id="dam" stroke="none" stroke-width="1" fill="none" fill-rule="evenodd" sketch:type="MSPage">
        <g id="dam-white-18" sketch:type="MSArtboardGroup" fill="#FFFFFF">
            <path d="M16,12.0527027 C15.6057016,12.1567066 15.2082506,12.0482823 14.8402898,11.7602571 C14.4701693,11.4705413 13.951758,11.420551 13.5160282,11.7606241 C13.3547736,11.8864781 13.1800962,11.9723553 13,12.0220134 L13,12.0220134 L13,10.9657859 C13.0203518,10.9530474 13.040256,10.9391283 13.0596442,10.9239964 C13.7974593,10.3481554 14.6688367,10.4321822 15.2976129,10.9243634 C15.5401466,11.1142092 15.7608218,11.149069 16,10.9947058 L16,12.0527027 Z M18,11.972362 C18.6577889,12.2125284 19.5820966,11.9394217 20,11.2784341 L19.3338647,10.6758718 C19.1209437,11.0126438 18.4746316,11.1649389 18.1692121,10.9820468 C18.111463,10.9474654 18.0550918,10.9145944 18,10.8835163 L18,11.972362 L18,11.972362 Z M16,14.9527024 C15.6057016,15.0567062 15.2082506,14.9482819 14.8402898,14.6602567 C14.4701693,14.3705409 13.951758,14.3205506 13.5160282,14.6606237 C13.3547736,14.7864778 13.1800962,14.8723549 13,14.922013 L13,14.922013 L13,13.8657855 C13.0203518,13.853047 13.040256,13.8391279 13.0596442,13.823996 C13.7974593,13.248155 14.6688367,13.3321818 15.2976129,13.824363 C15.5401466,14.0142089 15.7608218,14.0490686 16,13.8947054 L16,14.9527024 L16,14.9527024 Z M18,14.8723616 C18.6577889,15.112528 19.5820966,14.8394213 20,14.1784337 L19.3338647,13.5758715 C19.1209437,13.9126434 18.4746316,14.0649385 18.1692121,13.8820465 C18.111463,13.847465 18.0550918,13.814594 18,13.7835159 L18,14.8723616 L18,14.8723616 Z M3,4 L7.03955078,4 L7.03955078,5 L3,5 L3,4 Z M3,6 L7.03955078,6 L7.03955078,7 L3,7 L3,6 Z M3,8 L7.03955078,8 L7.03955078,9 L3,9 L3,8 Z M3,10 L7.03955078,10 L7.03955078,11 L3,11 L3,10 Z M3,12 L7.03955078,12 L7.03955078,13 L3,13 L3,12 Z M3,14 L7.03955078,14 L7.03955078,15 L3,15 L3,14 Z M8,2 L9.5,2 L12,15 L8,15 L8,2 Z" id="symbol" sketch:type="MSShapeGroup"></path>
        </g>
    </g>
</svg>

<?xml version="1.0" encoding="utf-8"?>
<!-- Generator: Adobe Illustrator 21.1.0, SVG Export Plug-In . SVG Version: 6.00 Build 0)  -->
<svg version="1.1" id="Layer_1" xmlns:sketch="http://www.bohemiancoding.com/sketch/ns"
	 xmlns="http://www.w3.org/2000/svg" xmlns:xlink="http://www.w3.org/1999/xlink" x="0px" y="0px" width="18px" height="18px"
	 viewBox="0 0 18 18" enable-background="new 0 0 18 18" xml:space="preserve">
<path id="symbol" sketch:type="MSShapeGroup" fill="#FFFFFF" d="M16,12.1c-0.4,0.1-0.8,0-1.2-0.3c-0.4-0.3-0.9-0.3-1.3,0
	C13.4,11.9,13.2,12,13,12l0,0V11c0,0,0,0,0.1,0c0.7-0.6,1.6-0.5,2.2,0c0.2,0.2,0.5,0.2,0.7,0.1V12.1z M16,15c-0.4,0.1-0.8,0-1.2-0.3
	c-0.4-0.3-0.9-0.3-1.3,0c-0.2,0.1-0.3,0.2-0.5,0.3l0,0v-1.1c0,0,0,0,0.1,0c0.7-0.6,1.6-0.5,2.2,0c0.2,0.2,0.5,0.2,0.7,0.1V15L16,15z
	 M3,4h4v1H3V4z M3,6h4v1H3V6z M3,8h4v1H3V8z M3,10h4v1H3V10z M3,12h4v1H3V12z M3,14h4v1H3V14z M8,2h1.5L12,15H8V2z"/>
</svg>
